X:1
T:Make Jesus Glad
T:Make Jesus Glad
T:Herbert George Tovey
T:Amzi Clarence Dixon, 1920
T:Public Domain Courtesy of the Cyber Hymnal™
C:Herbert George Tovey
Z:Public Domain
Z:Courtesy of the Cyber Hymnal™
%%score ( 1 2 ) ( 3 4 )
L:1/8
Q:1/4=135
M:6/4
K:Bb
V:1 treble 
V:2 treble 
V:3 bass 
V:4 bass 
V:1
 [DF]2 | [DF]4 [DF]2 [B,D]2 [CE]2 [DF]2 | [EG]6 [DF]4 [DF][DF] | [EF]4 [EF]2 [EF]2 [EG]2 [EA]2 | %4
w: 1.~The|blood- red sweat in the|gar- den And the|brok- en heart on the|
w: 2.~My|sins and fol- lies that|grieve Him, As He|watch- es me day by|
w: 3.~The|scoffs of those who des-|pise Him, And the|sneers of those who re-|
w: 4.~When|tear- ful days are all|end- ed, And I|see His ra- di- ant|
 [DB]6- [DB]4 [FB][FB] | [Fc]2 [Fc]2 [Fc]2 ([Fc]2 [FB]2) [Fc]2 | [Fd]6 [DB]4 [DA]2 | %7
w: tree, * Are e-|nough for my suffer- * ing|Sav- ior To|
w: day, * Are e-|nough for my pa- * tient|Sav- ior To|
w: vile, * Are e-|nough for my lov- * ing|Sav- ior To|
w: face, * I will|share with my joy- * ful|Sav- ior The|
 [EG]4 [EG]2 (G2 A2) [EB]2 | [Ec]6- [Ec]4 ||"^Refrain" [Fd][Ec] | B4 z4 B2 [DA]2 [DG]2 | %11
w: bear on earth * for|me. *|||
w: bear a- long * life’s|way. *|Till I|meet Him in the|
w: bear for me * a-|while. *|||
w: glor- ies of * His|grace. *|||
 [EA]6 [EA]4 [EF][EG] | [EA]2 [FA]2 [FA]2 A4 [EG]2 | [DF]6- [DF]4 ([B,D][CE]) | %14
w: |||
w: glo- ry, May I|glad- den His yearn- ing|soul * By *|
w: |||
w: |||
 [DF]2 [DG]2 [DA]2 (B2 A2) [FB]2 | [Ec]6 [EG]4 [^CG]2 | [DF]2 [DF]2 [FB]2 [=Ec]4 [_Ec]2 | %17
w: |||
w: bring- ing each day * to|Je- sus Some|wan- der- er from the|
w: |||
w: |||
 B6- [DB]4 |] %18
w: |
w: fold. *|
w: |
w: |
V:2
 x2 | x12 | x12 | x12 | x12 | x12 | x12 | x6 E4 x2 | x10 || x2 | (D2 D6) x6 | x12 | x6 (F2 E2) x2 | %13
 x12 | x6 D4 x2 | x12 | x12 | D4 E2 x4 |] %18
V:3
 [B,,B,]2 | [B,,B,]4 [B,,B,]2 [B,,F,]2 [B,,F,]2 [B,,B,]2 | [B,,B,]6 [B,,B,]4 [B,,B,][B,,B,] | %3
w: ~|~ ~ ~ ~ ~|~ ~ ~ ~|
 [F,A,]4 [F,A,]2 [F,A,]2 [F,B,]2 [F,C]2 | [B,,B,]6- [B,,B,]4 [D,B,][D,B,] | %5
w: ~ ~ ~ ~ ~|~ * ~ ~|
 [F,A,]2 [F,A,]2 [F,A,]2 ([E,A,]2 [D,B,]2) [C,A,]2 | [B,,B,]6 [B,,F,]4 [B,,B,]2 | %7
w: ~ ~ ~ ~ * ~|~ ~ ~|
 [C,B,]4 [C,B,]2 C4 [G,C]2 | [F,A,]6- [F,A,]4 || !fermata![F,A,][F,A,] | %10
w: ~ ~ ~ ~|~ *|~ ~|
 B,2 z4 [B,,F,]2 [B,,F,]2 x4 | F,6 [F,C]4 [F,A,][F,B,] | [F,C]2 [F,D]2 [F,E]2 (ED C2) [F,A,]2 | %13
w: meet Him ~|~ ~ ~ ~|~ ~ ~ ~ * * ~|
 [B,,B,]6- [B,,B,]4 [B,,F,]2 | [B,,B,]2 [B,,B,]2 [B,,B,]2 (F,2 B,2) [D,B,]2 | %15
w: ~ * ~|~ ~ ~ ~ * ~|
 [E,G,]6 [E,B,]4 [=E,B,]2 | [F,B,]2 [F,B,]2 [D,B,]2 [C,B,]4 [F,A,]2 | B,4 G,2 [B,,F,]4 |] %18
w: ~ ~ ~|~ ~ ~ ~ ~|~ ~ ~|
V:4
 x2 | x12 | x12 | x12 | x12 | x12 | x12 | x6 (B,2 A,2) x2 | x10 || x2 | B,,4 F,6 B,,2 x2 | %11
 C,4 F,2 x6 | x6 F,4 x2 | x12 | x6 B,,4 x2 | x12 | x12 | B,,6- x4 |] %18

